!!!COM: Copland, Aaron
!!!OTL: Symphonic Ode
!!!OMV:
!!!example: 705
!!!work: Cop-7
**kern	**dynam	**kern	**kern	**dynam	**kern	**dynam	**kern	**kern	**kern	**dynam	**kern	**dynam	**kern	**dynam	**kern	**dynam	**kern	**dynam	**kern	**dynam	**kern	**dynam	**kern	**dynam
*part13	*part13	*part12	*part11	*part11	*part10	*part10	*part9	*part9	*part8	*part8	*part7	*part7	*part6	*part6	*part5	*part5	*part4	*part4	*part3	*part3	*part2	*part2	*part1	*part1
*staff14	*	*staff13	*staff12	*	*staff11	*	*staff10	*staff9	*staff8	*	*staff7	*	*staff6	*	*staff5	*	*staff4	*	*staff3	*	*staff2	*	*staff1	*
*I"Contrabass	*	*I"Viola	*I"Violin II	*	*I"Violin I	*	*I"Piano	*	*I"Percussion	*	*I"Timpani	*	*I"Trumpet in C	*	*I"Clarinet in Bb	*	*I"Clarinet in Eb	*	*I"Cor Anglais	*	*I"Oboe	*	*I"Flute	*
*I'Cb.	*	*I'Vla.	*I'Vln. II	*	*I'Vln. I	*	*I'Pno.	*	*I'Perc.	*	*I'Timp.	*	*I'C Tpt.	*	*I'Cl.	*	*I'Eb Cl.	*	*I'C. A.	*	*I'Ob.	*	*I'Fl.	*
*clefF4	*	*clefC3	*clefG2	*	*clefG2	*	*clefF4	*clefF4	*clefpercussion0	*	*clefF4	*	*clefG2	*	*clefG2	*	*clefG2	*	*clefG2	*	*clefG2	*	*clefG2	*
*k[]	*	*k[]	*k[]	*	*k[]	*	*k[]	*k[]	*	*	*	*	*k[]	*	*k[]	*	*k[]	*	*k[]	*	*k[]	*	*k[]	*
*	*	*	*	*	*	*	*	*	*	*	*	*	*	*	*	*	*	*	*	*	*	*	*	*
*M2/2	*	*M2/2	*M2/2	*	*M2/2	*	*M2/2	*M2/2	*M2/2	*	*M2/2	*	*M2/2	*	*M2/2	*	*M2/2	*	*M2/2	*	*M2/2	*	*M2/2	*
*MM121	*	*MM121	*MM121	*	*MM121	*	*MM121	*MM121	*MM121	*	*MM121	*	*MM121	*	*MM121	*	*MM121	*	*MM121	*	*MM121	*	*MM121	*
=456	=456	=456	=456	=456	=456	=456	=456	=456	=456	=456	=456	=456	=456	=456	=456	=456	=456	=456	=456	=456	=456	=456	=456	=456
1r	.	4F` 4A 4c	1r	.	1r	.	1r	1r	1r	.	4BB	mp	1r	.	1r	.	1r	.	1r	.	1r	.	1r	.
.	.	4F` 4A 4c	.	.	.	.	.	.	.	.	4F#X	.	.	.	.	.	.	.	.	.	.	.	.	.
.	.	[4F` [4A [4c	.	.	.	.	.	.	.	.	[4FFn	.	.	.	.	.	.	.	.	.	.	.	.	.
.	.	8FL_ 8A_ 8c_	.	.	.	.	.	.	.	.	8FFL_	.	.	.	.	.	.	.	.	.	.	.	.	.
.	.	16FL] 16A] 16c]	.	.	.	.	.	.	.	.	16FFL]	.	.	.	.	.	.	.	.	.	.	.	.	.
.	.	16F`JJ 16A 16c	.	.	.	.	.	.	.	.	16AAJJ	.	.	.	.	.	.	.	.	.	.	.	.	.
=457	=457	=457	=457	=457	=457	=457	=457	=457	=457	=457	=457	=457	=457	=457	=457	=457	=457	=457	=457	=457	=457	=457	=457	=457
*M3/4	*	*M3/4	*M3/4	*	*M3/4	*	*M3/4	*M3/4	*M3/4	*	*M3/4	*	*M3/4	*	*M3/4	*	*M3/4	*	*M3/4	*	*M3/4	*	*M3/4	*
2.r	.	4F` 4A 4c	2.r	.	2.r	.	2.r	2.r	2.r	.	4F	.	2.r	.	2.r	.	2.r	.	2.r	.	2.r	.	2.r	.
.	.	4F` 4A 4c	.	.	.	.	.	.	.	.	4FF	.	.	.	.	.	.	.	.	.	.	.	.	.
.	.	4F` 4A 4c	.	.	.	.	.	.	.	.	4BB	.	.	.	.	.	.	.	.	.	.	.	.	.
=458	=458	=458	=458	=458	=458	=458	=458	=458	=458	=458	=458	=458	=458	=458	=458	=458	=458	=458	=458	=458	=458	=458	=458	=458
*M2/2	*	*M2/2	*M2/2	*	*M2/2	*	*M2/2	*M2/2	*M2/2	*	*M2/2	*	*M2/2	*	*M2/2	*	*M2/2	*	*M2/2	*	*M2/2	*	*M2/2	*
1r	.	1r	1r	.	1r	.	4r	4r	1r	.	4F#X	.	1r	.	1r	.	1r	.	1r	.	1r	.	1r	.
.	.	.	.	.	.	.	4FFn	4F 4A 4c	.	.	4FFn	.	.	.	.	.	.	.	.	.	.	.	.	.
.	.	.	.	.	.	.	[4BB	[4.F [4.A [4.c	.	.	[4BB	.	.	.	.	.	.	.	.	.	.	.	.	.
.	.	.	.	.	.	.	8BBL_	.	.	.	8BBL_	.	.	.	.	.	.	.	.	.	.	.	.	.
.	.	.	.	.	.	.	16BBL]	16FLL] 16A] 16c]	.	.	16BBL]	.	.	.	.	.	.	.	.	.	.	.	.	.
.	.	.	.	.	.	.	16F#XJJ	16FJJ 16A 16c	.	.	16F#JJ	.	.	.	.	.	.	.	.	.	.	.	.	.
=459	=459	=459	=459	=459	=459	=459	=459	=459	=459	=459	=459	=459	=459	=459	=459	=459	=459	=459	=459	=459	=459	=459	=459	=459
*M3/4	*	*M3/4	*M3/4	*	*M3/4	*	*M3/4	*M3/4	*M3/4	*	*M3/4	*	*M3/4	*	*M3/4	*	*M3/4	*	*M3/4	*	*M3/4	*	*M3/4	*
2.r	.	2.r	2.r	.	2.r	.	4FFn	4F 4A 4c	2.r	.	4FF	.	2.r	.	2.r	.	2.r	.	2.r	.	2.r	.	2.r	.
.	.	.	.	.	.	.	4BB	4F 4A 4c	.	.	4BB	.	.	.	.	.	.	.	.	.	.	.	.	.
.	.	.	.	.	.	.	4F	4F 4A 4c	.	.	4F	.	.	.	.	.	.	.	.	.	.	.	.	.
=460	=460	=460	=460	=460	=460	=460	=460	=460	=460	=460	=460	=460	=460	=460	=460	=460	=460	=460	=460	=460	=460	=460	=460	=460
*M2/2	*	*M2/2	*M2/2	*	*M2/2	*	*M2/2	*M2/2	*M2/2	*	*M2/2	*	*M2/2	*	*M2/2	*	*M2/2	*	*M2/2	*	*M2/2	*	*M2/2	*
1r	.	4r	1r	.	1r	.	4FFn	4r	1r	.	4FFn	.	1r	.	1r	.	1r	.	1r	.	1r	.	1r	.
.	.	8F^L 8A 8c	.	.	.	.	4BB	8F^L 8A 8c	.	.	4BB	.	.	.	.	.	.	.	.	.	.	.	.	.
.	.	8FJ 8A 8c	.	.	.	.	.	8FJ 8A 8c	.	.	.	.	.	.	.	.	.	.	.	.	.	.	.	.
.	.	8FL 8A 8c	.	.	.	.	[4F#X	8FL 8A 8c	.	.	[4F#X	.	.	.	.	.	.	.	.	.	.	.	.	.
.	.	8F 8A 8c	.	.	.	.	.	8F 8A 8c	.	.	.	.	.	.	.	.	.	.	.	.	.	.	.	.
.	.	8F 8A 8c	.	.	.	.	8F#L_	8F 8A 8c	.	.	8F#L_	.	.	.	.	.	.	.	.	.	.	.	.	.
.	.	8FJ 8A 8c	.	.	.	.	16F#L]	8FJ 8A 8c	.	.	16F#L]	.	.	.	.	.	.	.	.	.	.	.	.	.
.	.	.	.	.	.	.	16BBJJ	.	.	.	16BBJJ	.	.	.	.	.	.	.	.	.	.	.	.	.
=461	=461	=461	=461	=461	=461	=461	=461	=461	=461	=461	=461	=461	=461	=461	=461	=461	=461	=461	=461	=461	=461	=461	=461	=461
*M3/4	*	*M3/4	*M3/4	*	*M3/4	*	*M3/4	*M3/4	*M3/4	*	*M3/4	*	*M3/4	*	*M3/4	*	*M3/4	*	*M3/4	*	*M3/4	*	*M3/4	*
2.r	.	2.r	2.r	.	2.r	.	4F	2.r	2.r	.	4F	.	4r	.	2.r	.	2.r	.	4r	.	2.r	.	2.r	.
.	.	.	.	.	.	.	4FF	.	.	.	4FF	.	4g 4b	mf	.	.	.	.	4dd	mf	.	.	.	.
.	.	.	.	.	.	.	4BB	.	.	.	4BB	.	4a 4cc	.	.	.	.	.	4dd	.	.	.	.	.
=462	=462	=462	=462	=462	=462	=462	=462	=462	=462	=462	=462	=462	=462	=462	=462	=462	=462	=462	=462	=462	=462	=462	=462	=462
*M2/2	*	*M2/2	*M2/2	*	*M2/2	*	*M2/2	*M2/2	*M2/2	*	*M2/2	*	*M2/2	*	*M2/2	*	*M2/2	*	*M2/2	*	*M2/2	*	*M2/2	*
1r	.	1r	1r	.	1r	.	4F#X	1r	1r	.	4F#X	.	[4a [4b	.	1r	.	1r	.	[4dd	.	1r	.	1r	.
.	.	.	.	.	.	.	4FFn	.	.	.	4FFn	.	8aL_ 8b_	.	.	.	.	.	8ddL_	.	.	.	.	.
.	.	.	.	.	.	.	.	.	.	.	.	.	16aL] 16b]	.	.	.	.	.	16ddL]	.	.	.	.	.
.	.	.	.	.	.	.	.	.	.	.	.	.	16aJJ 16cc	.	.	.	.	.	16ddJJ	.	.	.	.	.
.	.	.	.	.	.	.	[4BB	.	.	.	[4BB	.	4a 4dd	.	.	.	.	.	4b	.	.	.	.	.
.	.	.	.	.	.	.	8BBL_	.	.	.	8BBL_	.	4g 4a	.	.	.	.	.	4dd	.	.	.	.	.
.	.	.	.	.	.	.	16BBL]	.	.	.	16BBL]	.	.	.	.	.	.	.	.	.	.	.	.	.
.	.	.	.	.	.	.	16F#JJ	.	.	.	16F#JJ	.	.	.	.	.	.	.	.	.	.	.	.	.
=463	=463	=463	=463	=463	=463	=463	=463	=463	=463	=463	=463	=463	=463	=463	=463	=463	=463	=463	=463	=463	=463	=463	=463	=463
*M3/4	*	*M3/4	*M3/4	*	*M3/4	*	*M3/4	*M3/4	*M3/4	*	*M3/4	*	*M3/4	*	*M3/4	*	*M3/4	*	*M3/4	*	*M3/4	*	*M3/4	*
2.r	.	4r	2.r	.	2.r	.	4FF	4r	4r	.	4FF	.	4B 4g	.	2.r	.	2.r	.	4a	.	2.r	.	2.r	.
.	.	4r	.	.	.	.	4BB	4r	4x	mp	4BB	.	4r	.	.	.	.	.	4r	.	.	.	.	.
.	.	8FL 8A 8c	.	.	.	.	4F#X	8FL 8A 8c	4x	.	4F#X	.	4r	.	.	.	.	.	4r	.	.	.	.	.
.	.	8FJ 8A 8c	.	.	.	.	.	8FJ 8A 8c	.	.	.	.	.	.	.	.	.	.	.	.	.	.	.	.
=464	=464	=464	=464	=464	=464	=464	=464	=464	=464	=464	=464	=464	=464	=464	=464	=464	=464	=464	=464	=464	=464	=464	=464	=464
*M2/2	*	*M2/2	*M2/2	*	*M2/2	*	*M2/2	*M2/2	*M2/2	*	*M2/2	*	*M2/2	*	*M2/2	*	*M2/2	*	*M2/2	*	*M2/2	*	*M2/2	*
4BBB	mp	8FL 8A 8c	1r	.	1r	.	4BB	8FL 8A 8c	4x	.	4BB	.	2r	.	1r	.	1r	.	2r	.	1r	.	1r	.
.	.	8F 8A 8c	.	.	.	.	.	8F 8A 8c	.	.	.	.	.	.	.	.	.	.	.	.	.	.	.	.
4FF#X	.	8F 8A 8c	.	.	.	.	4F#X	8F 8A 8c	4r	.	4F#X	.	.	.	.	.	.	.	.	.	.	.	.	.
.	.	8FJ 8A 8c	.	.	.	.	.	8FJ 8A 8c	.	.	.	.	.	.	.	.	.	.	.	.	.	.	.	.
.	.	.	.	.	.	.	.	.	8qx/	.	.	.	.	.	.	.	.	.	.	.	.	.	.	.
[4FFFn	.	8FL 8A 8c	.	.	.	.	[4FFn	8FL 8A 8c	4x	.	[4FFn	.	4g 4b	.	.	.	.	.	4dd	.	.	.	.	.
.	.	8FJ 8A 8c	.	.	.	.	.	8FJ 8A 8c	.	.	.	.	.	.	.	.	.	.	.	.	.	.	.	.
8FFFL_	.	4r	.	.	.	.	8FFL_	4r	4x	.	8FFL_	.	4a 4b	.	.	.	.	.	4dd	.	.	.	.	.
16FFFL]	.	.	.	.	.	.	16FFL]	.	.	.	16FFL]	.	.	.	.	.	.	.	.	.	.	.	.	.
16BBBJJ	.	.	.	.	.	.	16BBJJ	.	.	.	16BBJJ	.	.	.	.	.	.	.	.	.	.	.	.	.
=465	=465	=465	=465	=465	=465	=465	=465	=465	=465	=465	=465	=465	=465	=465	=465	=465	=465	=465	=465	=465	=465	=465	=465	=465
*M3/4	*	*M3/4	*M3/4	*	*M3/4	*	*M3/4	*M3/4	*M3/4	*	*M3/4	*	*M3/4	*	*M3/4	*	*M3/4	*	*M3/4	*	*M3/4	*	*M3/4	*
4FFn	.	2.r	2.r	.	2.r	.	4F	2.r	4x	.	4F	.	2.r	.	4r	.	4r	.	2.r	.	4r	.	2.r	.
4FFF	.	.	.	.	.	.	4FF	.	4r	.	4FF	.	.	.	4e-- 4g-X	mf	4b--	mf	.	.	4d 4f#X 4a	mf	.	.
4BBB	.	.	.	.	.	.	4BB	.	4r	.	4BB	.	.	.	4f-X 4a-X	.	4cc-X	.	.	.	4e 4g#X 4b	.	.	.
=466	=466	=466	=466	=466	=466	=466	=466	=466	=466	=466	=466	=466	=466	=466	=466	=466	=466	=466	=466	=466	=466	=466	=466	=466
*M2/2	*	*M2/2	*M2/2	*	*M2/2	*	*M2/2	*M2/2	*M2/2	*	*M2/2	*	*M2/2	*	*M2/2	*	*M2/2	*	*M2/2	*	*M2/2	*	*M2/2	*
4FF#X	.	1r	1r	.	1r	.	4F#X	1r	1r	.	4F#X	.	4r	.	4ff-X 4aa-X	.	4ccc-X	.	4r	.	4ee 4gg#X 4bb	.	1r	.
4FFFn	.	.	.	.	.	.	4FFn	.	.	.	4FFn	.	8r	.	4r	.	4r	.	8r	.	4r	.	.	.
.	.	.	.	.	.	.	.	.	.	.	.	.	8a 8cc	.	.	.	.	.	8dd	.	.	.	.	.
[4BBB	.	.	.	.	.	.	[4BB	.	.	.	[4BB	.	4a 4dd	.	2r	.	2r	.	4b	.	2r	.	.	.
8BBBL]	.	.	.	.	.	.	8BBL]	.	.	.	8BBL]	.	4g 4a	.	.	.	.	.	4dd	.	.	.	.	.
8FF#J	.	.	.	.	.	.	8F#J	.	.	.	8F#J	.	.	.	.	.	.	.	.	.	.	.	.	.
=467	=467	=467	=467	=467	=467	=467	=467	=467	=467	=467	=467	=467	=467	=467	=467	=467	=467	=467	=467	=467	=467	=467	=467	=467
*M3/4	*	*M3/4	*M3/4	*	*M3/4	*	*M3/4	*M3/4	*M3/4	*	*M3/4	*	*M3/4	*	*M3/4	*	*M3/4	*	*M3/4	*	*M3/4	*	*M3/4	*
4FFF	.	2.r	4r	.	4r	.	4FF	4r	4r	.	4FF	.	4B 4g	.	2.r	.	2.r	.	4a	.	2.r	.	2.r	.
!	!	!	!	!	!LO:TX:a:t=pizz.	!	!	!	!	!	!	!	!	!	!	!	!	!	!	!	!	!	!	!
4BBB	.	.	4r	.	4b 4dd 4ff#X	f	4BB	4r	4x	mf	4BB	.	4r	.	.	.	.	.	4r	.	.	.	.	.
4FFn	.	.	8GL 8B 8d	mf	4aa 4ccc#X 4eee	.	4Fn	8GL 8B 8d	4x	.	4Fn	.	4r	.	.	.	.	.	4r	.	.	.	.	.
.	.	.	8GJ 8B 8d	.	.	.	.	8GJ 8B 8d	.	.	.	.	.	.	.	.	.	.	.	.	.	.	.	.
=468	=468	=468	=468	=468	=468	=468	=468	=468	=468	=468	=468	=468	=468	=468	=468	=468	=468	=468	=468	=468	=468	=468	=468	=468
*M2/2	*	*M2/2	*M2/2	*	*M2/2	*	*M2/2	*M2/2	*M2/2	*	*M2/2	*	*M2/2	*	*M2/2	*	*M2/2	*	*M2/2	*	*M2/2	*	*M2/2	*
4FFF	.	1r	8GL 8B 8d	.	4r	.	4FF	8GL 8B 8d	4x	.	4FF	.	1r	.	4r	.	4r	.	1r	.	4r	.	1r	.
.	.	.	8GJ 8B 8d	.	.	.	.	8GJ 8B 8d	.	.	.	.	.	.	.	.	.	.	.	.	.	.	.	.
4BBB	.	.	4r	.	4aa 4ccc#X 4eee	.	4BB	4r	4r	.	4BB	.	.	.	4bb-- 4ddd-X	.	4fff-X	.	.	.	4aa 4ccc#X 4eee	.	.	.
.	.	.	.	.	.	.	.	.	8qx/	.	.	.	.	.	.	.	.	.	.	.	.	.	.	.
[4FF#X	.	.	4r	.	4e 4g#X 4b	.	[4F#X	4r	4x	.	[4F#X	.	.	.	[4.f-X [4.a-X	.	[4.cc-X	.	.	.	[4.e [4.g#X [4.b	.	.	.
8FF#L_	.	.	8G 8B 8d	.	4r	.	8F#L_	8G 8B 8d	4x	.	8F#L_	.	.	.	.	.	.	.	.	.	.	.	.	.
16FF#L]	.	.	8r	.	.	.	16F#L]	8r	.	.	16F#L]	.	.	.	16f-LL] 16a-]	.	16cc-LL]	.	.	.	16eLL] 16g#] 16b]	.	.	.
16BBBJJ	.	.	.	.	.	.	16BBJJ	.	.	.	16BBJJ	.	.	.	16dd-X'JJ 16ff-X	.	16aa-X'JJ	.	.	.	16cc#X'JJ 16ee 16gg#X	.	.	.
=469	=469	=469	=469	=469	=469	=469	=469	=469	=469	=469	=469	=469	=469	=469	=469	=469	=469	=469	=469	=469	=469	=469	=469	=469
*M3/4	*	*M3/4	*M3/4	*	*M3/4	*	*M3/4	*M3/4	*M3/4	*	*M3/4	*	*M3/4	*	*M3/4	*	*M3/4	*	*M3/4	*	*M3/4	*	*M3/4	*
4FFn	.	2.r	2.r	.	4r	.	4F	2.r	4x	.	4F	.	2.r	.	4e-- 4g-X	.	4b--	.	2.r	.	4d 4f#X 4a	.	2.r	.
4FFFn	.	.	.	.	4r	.	4FF	.	4r	.	4FF	.	.	.	4ccn 4ee-X	.	4gg-X	.	.	.	4b 4dd#X 4ff#X	.	.	.
!	!	!	!	!	!LO:TX:a:t=arco	!	!	!	!	!	!	!	!	!	!	!	!	!	!	!	!	!	!	!
4BBB	.	.	.	.	4cc#X 4ee 4ff#X	.	4BB	.	4r	.	4BB	.	.	.	4g-X 4b--	.	4dd-X	.	.	.	4f#X 4a 4cc#X	.	.	.
=470	=470	=470	=470	=470	=470	=470	=470	=470	=470	=470	=470	=470	=470	=470	=470	=470	=470	=470	=470	=470	=470	=470	=470	=470
*M2/2	*	*M2/2	*M2/2	*	*M2/2	*	*M2/2	*M2/2	*M2/2	*	*M2/2	*	*M2/2	*	*M2/2	*	*M2/2	*	*M2/2	*	*M2/2	*	*M2/2	*
4FF#X	.	4r	1r	.	4cc#X 4ee 4ff#X	.	4F#X	4r	1r	.	4F#X	.	1r	.	1r	.	1r	.	1r	.	1r	.	1r	.
4FFFn	.	8AL 8c#X 8e	.	.	4r	.	4FFn	8AL 8c#X 8e	.	.	4FFn	.	.	.	.	.	.	.	.	.	.	.	.	.
.	.	8AJ 8c# 8e	.	.	.	.	.	8AJ 8c# 8e	.	.	.	.	.	.	.	.	.	.	.	.	.	.	.	.
[4BBB	.	8AL 8c# 8e	.	.	8r	.	[4BB	8AL 8c# 8e	.	.	[4BB	.	.	.	.	.	.	.	.	.	.	.	.	.
.	.	8A 8c# 8e	.	.	16r	.	.	8A 8c# 8e	.	.	.	.	.	.	.	.	.	.	.	.	.	.	.	.
.	.	.	.	.	16cc# 16ee 16ff#	.	.	.	.	.	.	.	.	.	.	.	.	.	.	.	.	.	.	.
8BBBL_	.	8A 8c# 8e	.	.	4cc# 4ee 4ff#	.	8BBL_	8A 8c# 8e	.	.	8BBL_	.	.	.	.	.	.	.	.	.	.	.	.	.
16BBBL]	.	8AJ 8c# 8e	.	.	.	.	16BBL]	8AJ 8c# 8e	.	.	16BBL]	.	.	.	.	.	.	.	.	.	.	.	.	.
16FF#JJ	.	.	.	.	.	.	16F#JJ	.	.	.	16F#JJ	.	.	.	.	.	.	.	.	.	.	.	.	.
=471	=471	=471	=471	=471	=471	=471	=471	=471	=471	=471	=471	=471	=471	=471	=471	=471	=471	=471	=471	=471	=471	=471	=471	=471
*M3/4	*	*M3/4	*M3/4	*	*M3/4	*	*M3/4	*M3/4	*M3/4	*	*M3/4	*	*M3/4	*	*M3/4	*	*M3/4	*	*M3/4	*	*M3/4	*	*M3/4	*
4FFF	.	2.r	2.r	.	4b 4cc#X 4ee	.	4FF	2.r	2.r	.	4FF	.	2.r	.	4r	.	4r	.	2.r	.	4r	.	4r	.
4BBB	.	.	.	.	4ee 4bb 4ccc#X	.	4BB	.	.	.	4BB	.	.	.	4r	.	4r	.	.	.	4r	.	4r	.
4FF	.	.	.	.	4r	.	4F	.	.	.	4F	.	.	.	4g 4b	f	4dd	f	.	.	4g 4b 4dd	f	4g 4b 4dd	f
=	=	=	=	=	=	=	=	=	=	=	=	=	=	=	=	=	=	=	=	=	=	=	=	=
*-	*-	*-	*-	*-	*-	*-	*-	*-	*-	*-	*-	*-	*-	*-	*-	*-	*-	*-	*-	*-	*-	*-	*-	*-
!!!system-decoration: [(s1,s2,s3,s4,s5)]s6[(s7)]s8{(s9,s10)}[(s11,s12,s13,s14)]
!!!CDT: 1900/11/14-1990/12/02
!!!CBL: Brooklyn, United States
!!!CDL: North Tarrytown, United States
!!!CNT: American
!!!AGN: Orchestral; Symphonic
!!!MCN: Koussevitzky, Serge
!!!MDT: 1932/02/19
!!!MGN: Boston Symphony Orchestra
!!!MLC: Boston, Massachusetts, United States of America
!!!MPD: 1932
!!!MPN:
!!!ODT: 1929 (rev. 1955)
!!!PDT: 1957
!!!excerpt-start-measure: 456
!!!excerpt-end-measure: 463
!!!excerpt-start-time: 16:16
!!!excerpt-end-time: 16:33
!!!EEV: 2020/01/27
!!!ONB: Converted from MusicXML on 2020/01/27
